icon-svg/waiputv.svg

<svg xmlns="http://www.w3.org/2000/svg" fill="#44739e" viewBox="0 0 24 24"><path d="m10.087 7.672-.078.129v.062a3.16 3.16 0 0 0-.223 1.153v4.67a3.064 3.064 0 0 0 .375 1.46c.034.061.07.119.107.177a2.8 2.8 0 0 0 1.33 1.093l.175.069a2.766 2.766 0 0 0 2.323-.247l3.841-2.3a2.95 2.95 0 0 0 .347-.242 2.83 2.83 0 0 0 .772-.977l.065-.136v-.017a3.13 3.13 0 0 0 .236-1.177V6.716a3.074 3.074 0 0 0-.374-1.459 2.833 2.833 0 0 0-1.438-1.281l-.173-.068a2.92 2.92 0 0 0-.888-.149.5.5 0 0 0-.093.006 2.865 2.865 0 0 0-1.344.39l-.948.567-2.891 1.73a2.84 2.84 0 0 0-1.121 1.22m5.3-2.953a2.2 2.2 0 0 1 1.1-.3 2.24 2.24 0 0 1 .683.116.04.04 0 0 0 .027.014 2.193 2.193 0 0 1 1.21 1.026 2.41 2.41 0 0 1 .293 1.141v4.671a2.435 2.435 0 0 1-.223 1.012.054.054 0 0 0-.014.043 2.2 2.2 0 0 1-.863.939l-3.842 2.3a2.115 2.115 0 0 1-1.782.187.042.042 0 0 0-.027-.014 2.182 2.182 0 0 1-1.21-1.026 2.4 2.4 0 0 1-.293-1.143V9.016A2.44 2.44 0 0 1 10.667 8c0-.015.014-.015.014-.043a2.2 2.2 0 0 1 .863-.939ZM9.565 14.933a3.05 3.05 0 0 1-.375-1.46V8.8a3.12 3.12 0 0 1 .223-1.148v-.059l.078-.129a2.846 2.846 0 0 1 1.119-1.219l2.89-1.729a2.5 2.5 0 0 0-1.066-.857c-.07-.03-.142-.057-.215-.081a.038.038 0 0 1-.031-.016h-.018a2.57 2.57 0 0 0-.778-.129 2.65 2.65 0 0 0-1.282.337L5.635 6.322a2.486 2.486 0 0 0-1.006 1.043v.016c0 .015-.015.015-.015.031a2.61 2.61 0 0 0-.261 1.124v5.189a2.547 2.547 0 0 0 .347 1.269 2.518 2.518 0 0 0 1.411 1.14.047.047 0 0 1 .031.016h.016a2.54 2.54 0 0 0 .777.128 2.64 2.64 0 0 0 1.282-.336l1.46-.832a1.9 1.9 0 0 1-.112-.177m7.5 2.467-.047-.018a.8.8 0 0 0-.242-.041h-.026a.77.77 0 0 0-.366.106l-.258.155-.788.471a.785.785 0 0 0-.3.333l-.021.035v.017a.86.86 0 0 0-.061.313v1.272a.83.83 0 0 0 .1.4c.01.017.019.033.03.049a.757.757 0 0 0 .361.3l.047.019a.8.8 0 0 0 .242.04.783.783 0 0 0 .392-.108l1.047-.626a.66.66 0 0 0 .094-.066.78.78 0 0 0 .211-.266l.017-.038v-.006a.86.86 0 0 0 .065-.32v-1.274a.85.85 0 0 0-.1-.4.78.78 0 0 0-.396-.347zm.314 2.02a.67.67 0 0 1-.061.275v.012a.6.6 0 0 1-.235.256l-1.047.626a.573.573 0 0 1-.486.051h-.007a.6.6 0 0 1-.33-.28.65.65 0 0 1-.08-.312v-1.276a.66.66 0 0 1 .067-.272v-.012a.6.6 0 0 1 .235-.256l1.047-.626a.607.607 0 0 1 .3-.083.62.62 0 0 1 .186.032h.007a.6.6 0 0 1 .33.279.67.67 0 0 1 .08.312zm-2.591.569v-1.273a.84.84 0 0 1 .06-.313v-.017l.022-.035a.77.77 0 0 1 .3-.332l.788-.472a.694.694 0 0 0-.291-.234l-.058-.022H15.6a.73.73 0 0 0-.212-.035.72.72 0 0 0-.349.092l-1.221.7a.67.67 0 0 0-.274.284l-.005.009a.72.72 0 0 0-.071.306v1.414a.691.691 0 0 0 .478.657h.009a.66.66 0 0 0 .212.035.724.724 0 0 0 .349-.091l.4-.227c-.01-.016-.02-.032-.029-.048a.84.84 0 0 1-.098-.398zm4.768-.361h-.036a.253.253 0 0 1-.173-.045.182.182 0 0 1-.05-.147V18.4h.243a.22.22 0 0 0 0-.44h-.24v-.284a.24.24 0 0 0-.48 0v.287h-.242a.22.22 0 0 0 0 .44h.242v1.035a.616.616 0 0 0 .176.494.76.76 0 0 0 .5.149h.063a.226.226 0 0 0 0-.451zm2.423-1.328a.2491.2491 0 0 0-.461-.189l-.482 1.259-.481-1.256v-.007a.25.25 0 0 0-.461.193l.675 1.591a.3.3 0 0 0 .159.16.294.294 0 0 0 .382-.159l.673-1.6zM18.1 19.58a.25.25 0 0 0 0 .5.25.25 0 0 0 0-.5M6.9 17.959a.238.238 0 0 0-.238.237v.114a.744.744 0 0 0-.672-.353 1.06 1.06 0 0 0 0 2.118.744.744 0 0 0 .672-.349v.113a.237.237 0 0 0 .218.236h.04a.237.237 0 0 0 .217-.236v-1.654a.238.238 0 0 0-.237-.226m-.311 1.357a.565.565 0 0 1-.531.32.6.6 0 0 1-.607-.593v-.014a.6.6 0 0 1 .577-.621h.023a.588.588 0 0 1 .556.353.63.63 0 0 1 .054.28.7.7 0 0 1-.074.275zm-2.016-1.36a.254.254 0 0 0-.244.185L4 19.316 3.653 18.2a.25.25 0 0 0-.217-.175H3.4a.251.251 0 0 0-.225.188l-.342 1.1-.333-1.179a.2511.2511 0 1 0-.484.134l.011.035v.009l.5 1.569a.289.289 0 0 0 .248.194h.043a.29.29 0 0 0 .262-.207l.33-1.052.333 1.045a.29.29 0 0 0 .253.21h.042a.29.29 0 0 0 .26-.194l.518-1.6a.3.3 0 0 0 .01-.067.254.254 0 0 0-.255-.254Zm3.285.007h-.045a.238.238 0 0 0-.223.237v1.656a.237.237 0 0 0 .473 0v-1.66a.237.237 0 0 0-.207-.235Zm-.03-.863a.248.248 0 1 0 .247.249.248.248 0 0 0-.247-.249m1.863.855a.83.83 0 0 0-.7.353v-.129a.223.223 0 0 0-.446-.01v2.395a.237.237 0 0 0 .218.228H8.8a.237.237 0 0 0 .216-.236v-.809a.772.772 0 0 0 .679.328 1.062 1.062 0 0 0 0-2.12zm.518 1.061a.6.6 0 0 1-.585.615H9.6a.6.6 0 0 1-.6-.6v-.015a.636.636 0 0 1 .17-.44.6.6 0 0 1 .43-.176.6.6 0 0 1 .611.589v.026zm2.489-1a.232.232 0 0 0-.136-.058h-.044a.238.238 0 0 0-.217.235v.923c0 .284-.116.509-.458.509s-.436-.229-.436-.523v-.917a.239.239 0 0 0-.217-.23h-.043a.238.238 0 0 0-.217.235v1.031a.746.746 0 0 0 .636.844.67.67 0 0 0 .142.006.641.641 0 0 0 .621-.327v.107a.224.224 0 1 0 .448 0V18.2a.236.236 0 0 0-.077-.174Z"/></svg>

<?xml version="1.0" encoding="UTF-8"?>
<svg width="24px" fill="#44739e" height="24px" viewBox="0 0 24 24" version="1.1" xmlns="http://www.w3.org/2000/svg" xmlns:xlink="http://www.w3.org/1999/xlink">
            <path d="M 10.087,7.672 10.009,7.801 V 7.863 A 3.161,3.161 0 0 0 9.786,9.016 v 4.67 a 3.064,3.064 0 0 0 0.375,1.46 c 0.034,0.061 0.07,0.119 0.107,0.177 a 2.8,2.8 0 0 0 1.33,1.093 l 0.175,0.069 a 2.766,2.766 0 0 0 2.323,-0.247 l 3.841,-2.3 a 2.952,2.952 0 0 0 0.347,-0.242 2.827,2.827 0 0 0 0.772,-0.977 l 0.065,-0.136 v -0.017 a 3.126,3.126 0 0 0 0.236,-1.177 V 6.716 A 3.074,3.074 0 0 0 18.983,5.257 2.833,2.833 0 0 0 17.545,3.976 L 17.372,3.908 a 2.917,2.917 0 0 0 -0.888,-0.149 0.485,0.485 0 0 0 -0.093,0.006 2.865,2.865 0 0 0 -1.344,0.39 l -0.948,0.567 v 0 l -2.891,1.73 a 2.842,2.842 0 0 0 -1.121,1.22 z m 5.3,-2.953 a 2.2,2.2 0 0 1 1.1,-0.3 2.235,2.235 0 0 1 0.683,0.116 0.04,0.04 0 0 0 0.027,0.014 2.193,2.193 0 0 1 1.21,1.026 2.407,2.407 0 0 1 0.293,1.141 v 4.671 a 2.435,2.435 0 0 1 -0.223,1.012 0.054,0.054 0 0 0 -0.014,0.043 2.2,2.2 0 0 1 -0.863,0.939 l -3.842,2.3 a 2.115,2.115 0 0 1 -1.782,0.187 0.042,0.042 0 0 0 -0.027,-0.014 2.182,2.182 0 0 1 -1.21,-1.026 2.4,2.4 0 0 1 -0.293,-1.143 V 9.016 A 2.442,2.442 0 0 1 10.667,8 c 0,-0.015 0.014,-0.015 0.014,-0.043 A 2.2,2.2 0 0 1 11.544,7.018 Z M 9.565,14.933 A 3.05,3.05 0 0 1 9.19,13.473 V 8.8 A 3.119,3.119 0 0 1 9.413,7.652 V 7.593 L 9.491,7.464 A 2.846,2.846 0 0 1 10.61,6.245 L 13.5,4.516 A 2.5,2.5 0 0 0 12.434,3.659 C 12.364,3.629 12.292,3.602 12.219,3.578 A 0.038,0.038 0 0 1 12.188,3.562 H 12.17 A 2.573,2.573 0 0 0 11.392,3.433 2.653,2.653 0 0 0 10.11,3.77 L 5.635,6.322 A 2.486,2.486 0 0 0 4.629,7.365 v 0.016 c 0,0.015 -0.015,0.015 -0.015,0.031 A 2.609,2.609 0 0 0 4.353,8.536 v 5.189 a 2.547,2.547 0 0 0 0.347,1.269 2.518,2.518 0 0 0 1.411,1.14 0.047,0.047 0 0 1 0.031,0.016 h 0.016 a 2.535,2.535 0 0 0 0.777,0.128 2.641,2.641 0 0 0 1.282,-0.336 L 9.677,15.11 A 1.924,1.924 0 0 1 9.565,14.933 Z m 7.5,2.467 -0.047,-0.018 A 0.8,0.8 0 0 0 16.776,17.341 H 16.75 a 0.773,0.773 0 0 0 -0.366,0.106 l -0.258,0.155 v 0 l -0.788,0.471 a 0.785,0.785 0 0 0 -0.3,0.333 l -0.021,0.035 v 0.017 a 0.863,0.863 0 0 0 -0.061,0.313 v 1.272 a 0.833,0.833 0 0 0 0.1,0.4 c 0.01,0.017 0.019,0.033 0.03,0.049 a 0.757,0.757 0 0 0 0.361,0.3 l 0.047,0.019 a 0.8,0.8 0 0 0 0.242,0.04 0.783,0.783 0 0 0 0.392,-0.108 l 1.047,-0.626 a 0.664,0.664 0 0 0 0.094,-0.066 0.781,0.781 0 0 0 0.211,-0.266 l 0.017,-0.038 v -0.006 a 0.855,0.855 0 0 0 0.065,-0.32 v -1.274 a 0.847,0.847 0 0 0 -0.1,-0.4 0.779,0.779 0 0 0 -0.396,-0.347 z m 0.314,2.02 a 0.668,0.668 0 0 1 -0.061,0.275 v 0.012 a 0.6,0.6 0 0 1 -0.235,0.256 l -1.047,0.626 A 0.573,0.573 0 0 1 15.55,20.64 h -0.007 a 0.6,0.6 0 0 1 -0.33,-0.28 0.652,0.652 0 0 1 -0.08,-0.312 V 18.772 A 0.656,0.656 0 0 1 15.2,18.5 v -0.012 a 0.6,0.6 0 0 1 0.235,-0.256 l 1.047,-0.626 a 0.607,0.607 0 0 1 0.3,-0.083 0.621,0.621 0 0 1 0.186,0.032 h 0.007 a 0.6,0.6 0 0 1 0.33,0.279 0.667,0.667 0 0 1 0.08,0.312 z m -2.591,0.569 v -1.273 a 0.841,0.841 0 0 1 0.06,-0.313 v -0.017 l 0.022,-0.035 a 0.77,0.77 0 0 1 0.3,-0.332 l 0.788,-0.472 A 0.694,0.694 0 0 0 15.667,17.313 L 15.609,17.291 H 15.6 a 0.73,0.73 0 0 0 -0.212,-0.035 0.722,0.722 0 0 0 -0.349,0.092 l -1.221,0.7 a 0.67,0.67 0 0 0 -0.274,0.284 v 0 l -0.005,0.009 a 0.722,0.722 0 0 0 -0.071,0.306 v 1.414 a 0.691,0.691 0 0 0 0.478,0.657 h 0.009 a 0.664,0.664 0 0 0 0.212,0.035 0.724,0.724 0 0 0 0.349,-0.091 l 0.4,-0.227 c -0.01,-0.016 -0.02,-0.032 -0.029,-0.048 a 0.837,0.837 0 0 1 -0.098,-0.398 z m 4.768,-0.361 H 19.52 a 0.253,0.253 0 0 1 -0.173,-0.045 0.182,0.182 0 0 1 -0.05,-0.147 V 18.4 h 0.243 a 0.22,0.22 0 0 0 0,-0.44 H 19.3 v -0.284 a 0.24,0.24 0 0 0 -0.48,0 v 0 0.287 h -0.242 a 0.22,0.22 0 0 0 0,0.44 h 0.242 v 1.035 a 0.616,0.616 0 0 0 0.176,0.494 0.76,0.76 0 0 0 0.5,0.149 h 0.063 a 0.226,0.226 0 0 0 0,-0.451 z M 21.979,18.3 A 0.24911945,0.24911945 0 0 0 21.518,18.111 L 21.036,19.37 20.555,18.114 V 18.107 A 0.25,0.25 0 0 0 20.094,18.3 l 0.675,1.591 a 0.3,0.3 0 0 0 0.159,0.16 0.294,0.294 0 0 0 0.382,-0.159 l 0.673,-1.6 z M 18.1,19.58 a 0.25,0.25 0 0 0 0,0.5 v 0 a 0.25,0.25 0 0 0 0,-0.5 z M 6.9,17.959 A 0.238,0.238 0 0 0 6.662,18.196 V 18.31 A 0.744,0.744 0 0 0 5.99,17.957 v 0 a 1.06,1.06 0 0 0 0,2.118 0.744,0.744 0 0 0 0.672,-0.349 v 0.113 A 0.237,0.237 0 0 0 6.88,20.075 H 6.92 A 0.237,0.237 0 0 0 7.137,19.839 V 18.185 A 0.238,0.238 0 0 0 6.9,17.959 Z m -0.311,1.357 a 0.565,0.565 0 0 1 -0.531,0.32 0.6,0.6 0 0 1 -0.607,-0.593 v -0.014 0 a 0.6,0.6 0 0 1 0.577,-0.621 h 0.023 a 0.588,0.588 0 0 1 0.556,0.353 0.628,0.628 0 0 1 0.054,0.28 0.7,0.7 0 0 1 -0.074,0.275 z m -2.016,-1.36 a 0.254,0.254 0 0 0 -0.244,0.185 v 0 L 4,19.316 3.653,18.2 v 0 A 0.25,0.25 0 0 0 3.436,18.025 H 3.4 a 0.251,0.251 0 0 0 -0.225,0.188 v 0 L 2.833,19.313 2.5,18.134 v 0 a 0.25110356,0.25110356 0 1 0 -0.484,0.134 l 0.011,0.035 v 0.009 l 0.5,1.569 v 0 a 0.289,0.289 0 0 0 0.248,0.194 H 2.818 A 0.29,0.29 0 0 0 3.08,19.868 v 0 l 0.33,-1.052 0.333,1.045 v 0 a 0.29,0.29 0 0 0 0.253,0.21 h 0.042 a 0.29,0.29 0 0 0 0.26,-0.194 v 0 l 0.518,-1.6 v 0 A 0.3,0.3 0 0 0 4.826,18.21 0.254,0.254 0 0 0 4.571,17.956 Z m -2.321,0 z m 5.606,0.007 H 7.813 A 0.238,0.238 0 0 0 7.59,18.2 v 1.656 0 a 0.237,0.237 0 0 0 0.473,0 v 0 -1.66 A 0.237,0.237 0 0 0 7.856,17.961 Z M 7.828,17.1 a 0.248,0.248 0 1 0 0.247,0.249 v 0 A 0.248,0.248 0 0 0 7.828,17.1 Z m 1.863,0.855 v 0 a 0.83,0.83 0 0 0 -0.7,0.353 v -0.129 a 0.22305605,0.22305605 0 0 0 -0.446,-0.01 v 0 2.395 a 0.237,0.237 0 0 0 0.218,0.228 H 8.8 a 0.237,0.237 0 0 0 0.216,-0.236 v -0.809 a 0.772,0.772 0 0 0 0.679,0.328 1.062,1.062 0 0 0 0,-2.12 z m 0.518,1.061 A 0.6,0.6 0 0 1 9.624,19.631 H 9.6 A 0.6,0.6 0 0 1 9,19.031 V 19.016 A 0.636,0.636 0 0 1 9.17,18.576 0.6,0.6 0 0 1 9.6,18.4 v 0 a 0.6,0.6 0 0 1 0.611,0.589 v 0.026 z m 2.489,-1 v 0 a 0.232,0.232 0 0 0 -0.136,-0.058 h -0.044 a 0.238,0.238 0 0 0 -0.217,0.235 v 0.923 c 0,0.284 -0.116,0.509 -0.458,0.509 -0.342,0 -0.436,-0.229 -0.436,-0.523 V 18.185 A 0.239,0.239 0 0 0 11.19,17.955 H 11.147 A 0.238,0.238 0 0 0 10.93,18.19 v 1.031 a 0.746,0.746 0 0 0 0.636,0.844 0.673,0.673 0 0 0 0.142,0.006 0.641,0.641 0 0 0 0.621,-0.327 v 0.107 a 0.224,0.224 0 1 0 0.448,0 V 18.2 A 0.236,0.236 0 0 0 12.7,18.026 Z"/>

</svg>
